svgs/sharp-regular/monument.svg

<svg xmlns="http://www.w3.org/2000/svg" viewBox="0 0 384 512"><!--! Font Awesome Pro 6.6.0 by @fontawesome - https://fontawesome.com License - https://fontawesome.com/license (Commercial License) Copyright 2024 Fonticons, Inc. --><path d="M141.2 118.7L95.5 432 47 432 96 96l62.1-62.1L192 0l33.9 33.9L288 96l49 336-48.5 0L242.8 118.7 192 67.9l-50.8 50.8zM344 512l-48 0L88 512l-48 0-16 0L0 512l0-48 24 0 18.3 0 48.5 0 202.3 0 48.5 0 18.3 0 24 0 0 48-24 0-16 0zM144 336l0-48 96 0 0 48-96 0z"/></svg>

<svg xmlns="http://www.w3.org/2000/svg" viewBox="0 0 384 512"><!--! Font Awesome Pro 6.4.2 by @fontawesome - https://fontawesome.com License - https://fontawesome.com/license (Commercial License) Copyright 2023 Fonticons, Inc. --><path d="M141.2 118.7L95.5 432H47L96 96l62.1-62.1L192 0l33.9 33.9L288 96l49 336H288.5L242.8 118.7 192 67.9l-50.8 50.8zM344 512H296 88 40 24 0V464H24 42.3 90.8 293.2h48.5H360h24v48H360 344zM144 336V288h96v48H144z"/></svg>
